status/48/avatar-default.svg

<?xml version="1.0" encoding="UTF-8" standalone="no"?>
<svg
   xmlns:dc="http://purl.org/dc/elements/1.1/"
   xmlns:cc="http://creativecommons.org/ns#"
   xmlns:rdf="http://www.w3.org/1999/02/22-rdf-syntax-ns#"
   xmlns:svg="http://www.w3.org/2000/svg"
   xmlns="http://www.w3.org/2000/svg"
   xmlns:xlink="http://www.w3.org/1999/xlink"
   version="1.1"
   width="48"
   height="48"
   id="svg4031">
  <defs
     id="defs4033">
    <linearGradient
       id="linearGradient4168">
      <stop
         id="stop4170"
         style="stop-color:#f8b17e;stop-opacity:1"
         offset="0" />
      <stop
         id="stop4172"
         style="stop-color:#e35d4f;stop-opacity:1"
         offset="0.23208089" />
      <stop
         id="stop4174"
         style="stop-color:#c6262e;stop-opacity:1"
         offset="0.5908742" />
      <stop
         id="stop4176"
         style="stop-color:#690b54;stop-opacity:1"
         offset="1" />
    </linearGradient>
    <linearGradient
       id="linearGradient3957">
      <stop
         id="stop3959"
         style="stop-color:#ffffff;stop-opacity:1"
         offset="0" />
      <stop
         id="stop3961"
         style="stop-color:#c1c1c1;stop-opacity:1"
         offset="1" />
    </linearGradient>
    <linearGradient
       id="linearGradient4011">
      <stop
         id="stop4013"
         style="stop-color:#ffffff;stop-opacity:1"
         offset="0" />
      <stop
         id="stop4015"
         style="stop-color:#ffffff;stop-opacity:0.23529412"
         offset="0.507761" />
      <stop
         id="stop4017"
         style="stop-color:#ffffff;stop-opacity:0.15686275"
         offset="0.83456558" />
      <stop
         id="stop4019"
         style="stop-color:#ffffff;stop-opacity:0.39215687"
         offset="1" />
    </linearGradient>
    <linearGradient
       id="linearGradient2867-449-88-871-390-598-476-591-434-148-57-177-3-8">
      <stop
         id="stop3750-8-9"
         style="stop-color:#90dbec;stop-opacity:1"
         offset="0" />
      <stop
         id="stop3752-3-2"
         style="stop-color:#42baea;stop-opacity:1"
         offset="0.26238" />
      <stop
         id="stop3754-7-2"
         style="stop-color:#3689e6;stop-opacity:1"
         offset="0.704952" />
      <stop
         id="stop3756-9-3"
         style="stop-color:#2b63a0;stop-opacity:1"
         offset="1" />
    </linearGradient>
    <linearGradient
       id="linearGradient3820-7-2-1">
      <stop
         id="stop3822-2-6-3"
         style="stop-color:#3d3d3d;stop-opacity:1"
         offset="0" />
      <stop
         id="stop3864-8-7-7"
         style="stop-color:#686868;stop-opacity:0.49803922"
         offset="0.5" />
      <stop
         id="stop3824-1-2-5"
         style="stop-color:#686868;stop-opacity:0"
         offset="1" />
    </linearGradient>
    <linearGradient
       x1="71.204407"
       y1="6.2375584"
       x2="71.204407"
       y2="44.340794"
       id="linearGradient3012"
       xlink:href="#linearGradient4011"
       gradientUnits="userSpaceOnUse"
       gradientTransform="matrix(1.054054,0,0,1.054054,-51.611001,-2.7279009)" />
    <radialGradient
       cx="3.9722471"
       cy="8.4497671"
       r="19.99999"
       fx="3.9722471"
       fy="8.4497671"
       id="radialGradient3015"
       xlink:href="#linearGradient2867-449-88-871-390-598-476-591-434-148-57-177-3-8"
       gradientUnits="userSpaceOnUse"
       gradientTransform="matrix(0,2.4988347,-2.6434689,-6.8014435e-8,46.336814,-12.180468)" />
    <radialGradient
       cx="99.157013"
       cy="186.17059"
       r="62.769119"
       fx="99.157013"
       fy="186.17059"
       id="radialGradient3018"
       xlink:href="#linearGradient3820-7-2-1"
       gradientUnits="userSpaceOnUse"
       gradientTransform="matrix(0.27083381,0,0,0.08762273,-2.855072,25.187228)" />
    <linearGradient
       x1="27.92535"
       y1="15.149301"
       x2="33.447899"
       y2="22.986004"
       id="linearGradient3951"
       xlink:href="#linearGradient4168"
       gradientUnits="userSpaceOnUse" />
    <linearGradient
       x1="24"
       y1="22"
       x2="24"
       y2="26"
       id="linearGradient3963"
       xlink:href="#linearGradient3957"
       gradientUnits="userSpaceOnUse" />
    <linearGradient
       x1="21.013996"
       y1="25.433903"
       x2="22.805599"
       y2="27.343702"
       id="linearGradient3963-7"
       xlink:href="#linearGradient3957-2"
       gradientUnits="userSpaceOnUse" />
    <linearGradient
       id="linearGradient3957-2">
      <stop
         id="stop3959-62"
         style="stop-color:#ffffff;stop-opacity:1"
         offset="0" />
      <stop
         id="stop3961-5"
         style="stop-color:#c1c1c1;stop-opacity:1"
         offset="1" />
    </linearGradient>
    <linearGradient
       xlink:href="#linearGradient27416-1-2-0-1"
       id="linearGradient2995"
       gradientUnits="userSpaceOnUse"
       gradientTransform="matrix(2.1155865,0,0,3.8509774,177.06178,-159.44552)"
       x1="30.271185"
       y1="10.028973"
       x2="30.271185"
       y2="55.052982" />
    <linearGradient
       id="linearGradient27416-1-2-0-1">
      <stop
         id="stop27420-2-0-8-7"
         style="stop-color:#55c1ec;stop-opacity:1"
         offset="0" />
      <stop
         id="stop27422-3-5-3-3"
         style="stop-color:#3689e6;stop-opacity:1"
         offset="1" />
    </linearGradient>
    <linearGradient
       xlink:href="#linearGradient27416-1-2-0-1"
       id="linearGradient3052"
       gradientUnits="userSpaceOnUse"
       gradientTransform="matrix(2.1155865,0,0,3.8509774,61.40076,-219.77227)"
       x1="30.271185"
       y1="10.028973"
       x2="30.271185"
       y2="55.052982" />
    <linearGradient
       xlink:href="#linearGradient27416-1-2-0-1"
       id="linearGradient3060"
       gradientUnits="userSpaceOnUse"
       gradientTransform="matrix(2.1155865,0,0,3.8509774,61.40076,-219.77227)"
       x1="30.271185"
       y1="10.028973"
       x2="30.271185"
       y2="55.052982" />
    <linearGradient
       xlink:href="#linearGradient27416-1-2-0-1"
       id="linearGradient3066"
       gradientUnits="userSpaceOnUse"
       gradientTransform="matrix(0.67764878,0,0,1.2335161,60.2151,-47.569187)"
       x1="30.271185"
       y1="10.028973"
       x2="30.271185"
       y2="55.052982" />
  </defs>
  <metadata
     id="metadata4036">
    <rdf:RDF>
      <cc:Work
         rdf:about="">
        <dc:format>image/svg+xml</dc:format>
        <dc:type
           rdf:resource="http://purl.org/dc/dcmitype/StillImage" />
        <dc:title />
      </cc:Work>
    </rdf:RDF>
  </metadata>
  <path
     d="m 40.999999,41.499999 a 17,5.4999999 0 1 1 -33.999999,0 17,5.4999999 0 1 1 33.999999,0 z"
     id="path3818-0-5"
     style="fill:url(#radialGradient3018);fill-opacity:1;stroke:none" />
  <path
     style="color:#000000;fill:url(#linearGradient3066);fill-opacity:1;fill-rule:nonzero;stroke:none;stroke-width:1.54645538;marker:none;visibility:visible;display:inline;overflow:visible;enable-background:accumulate"
     id="path3029"
     d="m 44.5,24.003202 a 20.5,20.5 0 0 1 -40.9999995,0 20.5,20.5 0 1 1 40.9999995,0 z" />
  <path
     d="m 24,12.864627 c -4.711679,0 -8.531249,3.672664 -8.531249,8.203125 0,4.53046 3.81957,8.203124 8.531249,8.203124 4.711679,0 8.53125,-3.672664 8.53125,-8.203124 0,-4.530461 -3.819571,-8.203125 -8.53125,-8.203125 z M 20.872559,30.6449 c -3.840505,0 -7.162431,2.259439 -8.838867,5.578125 2.993323,3.19278 7.244474,5.188476 11.966308,5.188476 4.721835,0 8.972986,-1.995696 11.966309,-5.188476 C 34.289872,32.904339 30.967947,30.6449 27.127442,30.6449 l -6.254883,0 z"
     id="path3070"
     style="opacity:0.15;color:#000000;fill:#000000;fill-opacity:1;fill-rule:nonzero;stroke:none;stroke-width:2;marker:none;visibility:visible;display:inline;overflow:visible;enable-background:accumulate" />
  <path
     style="opacity:0.07;color:#000000;fill:#000000;fill-opacity:1;fill-rule:nonzero;stroke:#000000;stroke-width:2;marker:none;visibility:visible;display:inline;overflow:visible;enable-background:accumulate;stroke-opacity:1;stroke-miterlimit:4;stroke-dasharray:none"
     id="path3840"
     d="m 24,12.864627 c -4.711679,0 -8.531249,3.672664 -8.531249,8.203125 0,4.53046 3.81957,8.203124 8.531249,8.203124 4.711679,0 8.53125,-3.672664 8.53125,-8.203124 0,-4.530461 -3.819571,-8.203125 -8.53125,-8.203125 z M 20.872559,30.6449 c -3.840505,0 -7.162431,2.259439 -8.838867,5.578125 2.993323,3.19278 7.244474,5.188476 11.966308,5.188476 4.721835,0 8.972986,-1.995696 11.966309,-5.188476 C 34.289872,32.904339 30.967947,30.6449 27.127442,30.6449 l -6.254883,0 z" />
  <path
     style="color:#000000;fill:#ffffff;fill-opacity:1;fill-rule:nonzero;stroke:none;stroke-width:2;marker:none;visibility:visible;display:inline;overflow:visible;enable-background:accumulate"
     id="rect3049"
     d="m 24,11.864627 c -4.711679,0 -8.531249,3.672664 -8.531249,8.203125 0,4.53046 3.81957,8.203124 8.531249,8.203124 4.711679,0 8.53125,-3.672664 8.53125,-8.203124 0,-4.530461 -3.819571,-8.203125 -8.53125,-8.203125 z M 20.872559,29.6449 c -3.840505,0 -7.162431,2.259439 -8.838867,5.578125 2.993323,3.19278 7.244474,5.188476 11.966308,5.188476 4.721835,0 8.972986,-1.995696 11.966309,-5.188476 C 34.289872,31.904339 30.967947,29.6449 27.127442,29.6449 l -6.254883,0 z" />
  <path
     d="m 43.5,23.999308 c 0,10.7699 -8.73109,19.50069 -19.499753,19.50069 -10.769649,0 -19.5002474,-8.730889 -19.5002474,-19.50069 0,-10.769402 8.7305984,-19.4993078 19.5002474,-19.4993078 C 34.76891,4.5000002 43.5,13.229906 43.5,23.999308 l 0,0 z"
     id="path8655"
     style="opacity:0.5;color:#000000;fill:none;stroke:url(#linearGradient3012);stroke-width:1;stroke-linecap:round;stroke-linejoin:round;stroke-miterlimit:4;stroke-opacity:1;stroke-dasharray:none;stroke-dashoffset:0;marker:none;visibility:visible;display:inline;overflow:visible;enable-background:accumulate" />
  <path
     d="m 24.000003,3.499998 c -11.311193,0 -20.5000034,9.188806 -20.5000034,20.5 0,11.311194 9.1888104,20.500005 20.5000034,20.500002 11.311188,0 20.500008,-9.188808 20.499997,-20.500002 0,-11.311194 -9.188809,-20.5 -20.499997,-20.5 z"
     id="path2555-6"
     style="opacity:0.50000000000000000;color:#000000;fill:#000000;fill-opacity:0;fill-rule:nonzero;stroke:#003651;stroke-width:1;stroke-linecap:round;stroke-linejoin:round;stroke-miterlimit:4;stroke-opacity:1;stroke-dasharray:none;stroke-dashoffset:0;marker:none;visibility:visible;display:inline;overflow:visible;enable-background:accumulate" />
</svg>

<svg xmlns="http://www.w3.org/2000/svg" xmlns:xlink="http://www.w3.org/1999/xlink" width="48" height="48"><defs><linearGradient id="a"><stop offset="0" stop-color="#fff"/><stop offset=".508" stop-color="#fff" stop-opacity=".235"/><stop offset=".835" stop-color="#fff" stop-opacity=".157"/><stop offset="1" stop-color="#fff" stop-opacity=".392"/></linearGradient><linearGradient id="b"><stop offset="0" stop-color="#3d3d3d"/><stop offset=".5" stop-color="#686868" stop-opacity=".498"/><stop offset="1" stop-color="#686868" stop-opacity="0"/></linearGradient><linearGradient x1="71.204" y1="6.238" x2="71.204" y2="44.341" id="f" xlink:href="#a" gradientUnits="userSpaceOnUse" gradientTransform="translate(-51.61 -2.728) scale(1.05405)"/><radialGradient cx="99.157" cy="186.171" r="62.769" fx="99.157" fy="186.171" id="d" xlink:href="#b" gradientUnits="userSpaceOnUse" gradientTransform="matrix(.27083 0 0 .08762 -2.855 25.187)"/><linearGradient id="c"><stop offset="0" stop-color="#55c1ec"/><stop offset="1" stop-color="#3689e6"/></linearGradient><linearGradient xlink:href="#c" id="e" gradientUnits="userSpaceOnUse" gradientTransform="matrix(.67765 0 0 1.23352 60.215 -47.57)" x1="30.271" y1="10.029" x2="30.271" y2="55.053"/></defs><path d="M41 41.5a17 5.5 0 1 1-34 0 17 5.5 0 1 1 34 0z" fill="url(#d)"/><path d="M44.5 24.003a20.5 20.5 0 0 1-41 0 20.5 20.5 0 1 1 41 0z" color="#000" fill="url(#e)" overflow="visible"/><path d="M24 12.865c-4.712 0-8.53 3.672-8.53 8.203 0 4.53 3.818 8.203 8.53 8.203s8.53-3.67 8.53-8.2c0-4.53-3.818-8.203-8.53-8.203zm-3.127 17.78c-3.84 0-7.163 2.26-8.84 5.578A16.35 16.35 0 0 0 24 41.413a16.35 16.35 0 0 0 11.966-5.19c-1.676-3.32-4.998-5.578-8.84-5.578h-6.253z" opacity=".15" color="#000" overflow="visible"/><path d="M24 12.865c-4.712 0-8.53 3.672-8.53 8.203 0 4.53 3.818 8.203 8.53 8.203s8.53-3.67 8.53-8.2c0-4.53-3.818-8.203-8.53-8.203zm-3.127 17.78c-3.84 0-7.163 2.26-8.84 5.578A16.35 16.35 0 0 0 24 41.413a16.35 16.35 0 0 0 11.966-5.19c-1.676-3.32-4.998-5.578-8.84-5.578h-6.253z" opacity=".07" color="#000" stroke="#000" stroke-width="2" overflow="visible"/><path d="M24 11.865c-4.712 0-8.53 3.672-8.53 8.203 0 4.53 3.818 8.203 8.53 8.203s8.53-3.67 8.53-8.2c0-4.53-3.818-8.203-8.53-8.203zm-3.127 17.78c-3.84 0-7.163 2.26-8.84 5.578A16.35 16.35 0 0 0 24 40.413a16.35 16.35 0 0 0 11.966-5.19c-1.676-3.32-4.998-5.578-8.84-5.578h-6.253z" color="#000" fill="#fff" overflow="visible"/><path d="M43.5 24c0 10.77-8.73 19.5-19.5 19.5S4.5 34.77 4.5 24 13.23 4.5 24 4.5 43.5 13.23 43.5 24z" opacity=".5" color="#000" fill="none" stroke="url(#f)" stroke-linecap="round" stroke-linejoin="round" overflow="visible"/><path d="M24 3.5C12.69 3.5 3.5 12.69 3.5 24S12.69 44.5 24 44.5 44.5 35.31 44.5 24 35.31 3.5 24 3.5z" opacity=".5" color="#000" stroke="#003651" stroke-linecap="round" stroke-linejoin="round" overflow="visible" fill="none"/></svg>
